X: 27
T:The Atholl Highlanders
M:6/8
L:1/8
C:Trad
R:Jig
K:A
|:e3 ecA|ecA Bcd|eee ecA|Bcd dcB|
e3 ecA|ecA Bcd|eee fed|cdB A3:|
|:Ace Ace|Bdf Bdf|Ace Ace|Bcd dcB|
Ace Ace|Bdf Bdf|eee fed|cdB A3:|
|:aee edc|aee edc|aee edc|Bcd efg|
aee edc|aee edc|eee fed|cdB A3:|
|:cAc cAc|dBd dBd|cAc cAc|B=GB B=GB|
cAc cAc|dBd dBd|eee fed|cdB A3:|

